X:1
T:Parson Hogg
B:Songs Of The West, S Baring Gould
F:http://www.folkinfo.org/songs
M:6/8
L:1/8
K:A
A|A2c E2F|A2c A2E|A2A (BA) B|c3A2E|
w:Mess Par-son Hogg shall now main-tain, The bur-den of_ my song, Sir, A
A2c G2B|F2A E2E|F2E F2E|A3A2||
w:sin-gle life, per-force he led, Of con-sti-tu-tion strong, Sir.
E|C2F E2A|G2B E2E|(AG) A B2B|c3A2A|
w:Sing, tal-ly-ho! sing, tal-ly-ho! Sing, tal-*ly-o! why zounds, Sir He 
d2B c2A|B2G A2E|(CD) E (EF) G|A3A2|]
w:mounts his mare, to hunt the hare. Sing tal-*ly-ho!_ the hounds, Sir.